X: 406
T:Dame bele/Fi Mari/Nus n'iert ja jolis 
C:Adam de la Halle
B:Montpellier Codex 300v
F:https://stcpress.org/miscellaneous/damme_belle_fi_maris_nus_niert/damme_belle_pg1.jpg
F:https://stcpress.org/miscellaneous/damme_belle_fi_maris_nus_niert/damme_belle_pg2.jpg
F:https://archive.org/details/oeuvrescompltes00cousgoog/page/n506
Z:Ali Corbin <ali.corbin:gmail.com>
M:3/4
L:1/4
Q:1/4=120
K:F Lydian
%
%%MIDI program 1       42 Cello
%%MIDI program 2       72 piccolo
%%MIDI program 3       70 bassoon
V:1 clef=treble
V:2 clef=treble
V:3 clef=treble_8
%%sysstaffsep    22.00pt
%%%%%%%%%%%%%%%%%%%%%%%%%%%%% triplum %%%%%%%%%%%%%%%%%%%%%%%%%%%
[V:1]
   C2 D | F2  G | A2 (3G/F/E/ | D2  E |((3:2:2F/EF) G |
w: Da-me bele et  a-   ve-**   nant et        de** biau
    F2 z| F2 (3E/D/C/ | E2 (3E/D/C/|D2 (3D/C/B,/| C2 z|
w: port,  Ar-  ri-**    vé   sui**  a    mal**   port. 
    E2 ((3E/D/E/)| F2 ((3E/D/E/)| F2 z| (3:2:2A/  A  A ((3:2:2_B/A) | G2 ((3:2:2A/G)| F2 ((3:2:2E/D)|
w:  Je    muir**   a    grant**	 tort,        Se je n'ai       de*   vous       con-*fort.      Sans*
    C2 ((3:2:2D/E)| F2 z | E2  F |(GF) E | F3 ||
w:  nul       res-*sort,  Sui mis  à* la  mort. 
%%%%%%%%%%%%%%%%%%%%%%%%%%%%%% duplum %%%%%%%%%%%%%%%%%%%%%%%%%%%%
[V:2]
   F2 (3F/E/D/|C2  D|  E2 (3E/D/C/ | D2 ((3:2:2C/D)|((3:2:2C/B,A,) B,|
w: Fi   Ma-**  ri de vostre a-**    mour      Quar*        j'ai**  a- 
   C2 z| (3:2:2C/  _B, C  D |(3:2:2E/ D  E z | F2 ((3:2:2E/D)| C2  D |
w: mi,         Tel com il a-    fiert a-mi,    Qui       me*  sert et 
    E2 (3E/D/C/ | D     C   B,| C2 z | E2  F |(GF)((3:2:2E/D) |C2 ((3:2:2D/E)|
w: nuit  et**    jour, Sanz sé-jour,   De cuer mi-*      gnot* et        jo-* 
   F2 z| (3:2:2F/   F    G   G | A2 ((3:2:4G/F//G//) E/|(3D/ E/  C/    D   B,| C3||
w: li          Vi-lains vous de- mo-       ri-**    tés,  et je m'en vois  à   li. 
%%%%%%%%%%%%%%%%%%%%%%%%%%%%% tenor %%%%%%%%%%%%%%%%%%%%%%%%%%%%
[V:3][K:F]
   F,2   G, |F,2 B,|A,2  F, |G,3|F,2 z|
w: Nus n'iert ja jo-lis s'il n'ai-me.
(F,2G,|F,2)(B,|A,2)z|(F,2G,|F,2)(B,|
A,3)|(F,2G,|F,2)(B,|A,2)(F,|G,3)|F,2 z|
(F,2G,|F,2)(B,|A,2)(F,|G,3)|F,3||


